packages/astro-components-stencil/src/icons/antenna-transmit.svg

<svg width="24" height="24" viewBox="0 0 24 24" fill="none" xmlns="http://www.w3.org/2000/svg">
<path fill-rule="evenodd" clip-rule="evenodd" d="M5.53115 17.8387L6.58945 18.8268L8.92522 18.6021L9.83101 20.4262C9.89964 20.5644 9.93535 20.7167 9.93535 20.871C9.93535 21.3838 9.54931 21.8065 9.05197 21.8642L8.93535 21.871H4.20497C3.9626 21.871 3.72849 21.783 3.54616 21.6233C3.16263 21.2874 3.09746 20.7233 3.37588 20.3117L3.45266 20.2122L5.53115 17.8387ZM7.09757 10.0443C7.33377 10.0636 7.55543 10.1662 7.72301 10.3338L10.042 12.6529L12 12L11.347 13.9579L13.2146 15.8254C13.6051 16.2159 13.6051 16.8491 13.2146 17.2396C13.047 17.4072 12.8253 17.5098 12.5891 17.5291L7.30432 17.9622C7.01163 17.9862 6.7232 17.8803 6.51554 17.6726L5.87575 17.0328C5.66809 16.8252 5.56221 16.5368 5.58619 16.2441L6.01924 10.9593C6.06434 10.4088 6.54713 9.99916 7.09757 10.0443ZM12.0401 6.00108L12.153 6.01316C15.1469 6.4985 17.5035 8.86452 17.989 11.8473C18.08 12.454 17.5945 13 16.9776 13C16.5201 13 16.1315 12.6898 16.0108 12.2524L15.9864 12.1406C15.6222 10.0374 13.9635 8.37918 11.8597 8.01518C11.3641 7.93429 11 7.51973 11 7.02428C11 6.4846 11.4182 6.03781 11.9292 6.00228L12.0401 6.00108ZM11.998 2.00009L12.1156 2.0053C17.3416 2.5279 21.4822 6.6685 21.9948 11.8945C22.0551 12.4875 21.5827 13 20.9898 13C20.4772 13 20.0451 12.6181 19.9948 12.1156C19.5828 7.82425 16.1657 4.40725 11.8744 3.9952C11.3719 3.94495 11 3.50275 11 3.00025C11 2.48636 11.3925 2.0706 11.8832 2.00812L11.998 2.00009Z" fill="black"/>
</svg>

<svg xmlns="http://www.w3.org/2000/svg" viewBox="0 0 24 24"><g xmlns="http://www.w3.org/2000/svg" id="antenna-transmit">
            <path d="M5.531 17.839l1.058.988 2.336-.225.906 1.824a1 1 0 01-.779 1.438l-.117.007h-4.73a1 1 0 01-.83-1.56l.078-.099L5.53 17.84zm1.567-7.795a1 1 0 01.625.29l2.319 2.319L12 12l-.653 1.958 1.868 1.867a1 1 0 01-.626 1.704l-5.285.433a1 1 0 01-.788-.29l-.64-.64a1 1 0 01-.29-.788l.433-5.285a1 1 0 011.079-.915zm4.942-4.043l.113.012a7.076 7.076 0 015.836 5.834c.091.607-.394 1.153-1.011 1.153-.458 0-.846-.31-.967-.748l-.025-.111a5.075 5.075 0 00-4.126-4.126 1.01 1.01 0 01-.86-.99c0-.54.418-.987.93-1.023h.11zm-.042-4l.118.004a11.03 11.03 0 019.879 9.89A1.009 1.009 0 0120.99 13a.993.993 0 01-.995-.884 9.042 9.042 0 00-8.12-8.12C11.371 3.944 11 3.502 11 3c0-.514.393-.93.883-.992L11.998 2z"/>
        </g></svg>
